X:7137
T:The Night's Past and Gone
O:england
B:Joyce, P. W.; "Old Irish Folk Music and Songs"
R:jig
H:From Joe Martin: about 1852.
L:1/8
M:6/8
K:C
"Lively: but not too fast."\
A|A2 d def|edc A2 G|A2 d def|gfe d2 A|
A2 d def|edc ABc|BAG A2 F|D2 D D2||D|
DFA ABc|BAG A2 F|DFA ABc|d2 A F2 E|
DFA ABc|BAB cBc|dcB AFE|D2 D D2||


